Adwaita++/apps/16/org.gnome.NetworkDisplays.svg

<svg height="16" width="16" xmlns="http://www.w3.org/2000/svg">
  <g fill="#444">
    <path d="m2 2c-1.108 0-2 .892-2 2v8c0 1.108.892 2 2 2h5v-2h-5v-8h12v2h2v-2c0-1.108-.892-2-2-2z"/>
    <path d="m11 6c-2.16664 0-4.01982.73878-5 2v1h2c.78878-.60652 1.7588701-1 3-1 1.24113 0 2.21938.39348 3 1h2v-1c-.99478-1.2229-2.8734-2-5-2zm0 3c-1.2573299 0-2.21571.31165-3 1v1h3 .375 2.625v-1c-.8369-.67206-1.74267-1-3-1zm0 3c-1.1045699 0-2 .89543-2 2s.8954301 2 2 2c1.10457 0 2-.89543 2-2s-.89543-2-2-2z"/>
  </g>
</svg>

<svg xmlns="http://www.w3.org/2000/svg" width="16" height="16" version="1.1">
 <title id="title9167">
  Gnome Symbolic Icon Theme
 </title>
 <path fill="#444" d="M 2,2 C 0.892,2 0,2.892 0,4 v 8 c 0,1.108 0.892,2 2,2 H 7 V 12 H 2 V 4 h 12 v 2 h 2 V 4 C 16,2.892 15.108,2 14,2 Z"/>
 <path fill="#444" d="M 11,6 C 8.83336,6 6.98018,6.73878 6,8 v 1 h 2 c 0.78878,-0.60652 1.7588701,-1 3,-1 1.24113,0 2.21938,0.39348 3,1 h 2 V 8 C 15.00522,6.7771 13.1266,6 11,6 Z m 0,3 C 9.7426701,9 8.78429,9.31165 8,10 v 1 H 11 11.375 14 V 10 C 13.1631,9.32794 12.25733,9 11,9 Z m 0,3 c -1.1045699,0 -2,0.89543 -2,2 0,1.10457 0.8954301,2 2,2 1.10457,0 2,-0.89543 2,-2 0,-1.10457 -0.89543,-2 -2,-2 z"/>
</svg>
